; generated by Slic3r 1.2.9 on 2017-11-20 at 17:00:43

; external perimeters extrusion width = 0.50mm
; perimeters extrusion width = 0.72mm
; infill extrusion width = 0.72mm
; solid infill extrusion width = 0.72mm
; top infill extrusion width = 0.72mm

M107
M104 S200 ; set temperature
G28 ; home all axes
G1 Z5 F5000 ; lift nozzle

M109 S200 ; wait for temperature to be reached
G21 ; set units to millimeters
G90 ; use absolute coordinates
G1 Z0.500 F7800.000
G1 X0.000 Y26.441 F7800.000
G1 X200.000 Y26.441 F1800.000
G1 X202.306 Y26.838
G1 X204.346 Y27.983 F1800.000
G1 X205.885 Y29.745
G1 X206.746 Y31.921
G1 X206.893 Y33.333
G1 X206.893 Y166.667
G1 X206.496 Y168.972
G1 X205.350 Y171.012
G1 X203.588 Y172.552
G1 X201.413 Y173.413
G1 X200.000 Y173.559
G1 X-0.000 Y173.559
G1 X-2.306 Y173.162
G1 X-4.346 Y172.017
G1 X-5.885 Y170.255
G1 X-6.746 Y168.079
G1 X-6.893 Y166.667
G1 X-6.893 Y33.333
G1 X-6.496 Y31.028
G1 X-5.350 Y28.988
G1 X-3.588 Y27.448
G1 X-1.413 Y26.587
G1 X-0.075 Y26.448
G1 -2.00000 F2400.00000
G1 X2.285 Y35.619 F7800.000
G1 2.00000 F2400.00000
G1 X197.715 Y35.619 F1800.000
G1 X197.715 Y164.381
G1 X2.285 Y164.381
G1 X2.285 Y35.694
G1 X1.393 Y34.726 F7800.000
G1 X198.607 Y34.726 F1800.000
G1 X198.607 Y165.274
G1 X1.393 Y165.274
G1 X1.393 Y34.801
G1 X0.500 Y33.833 F7800.000
G1 X199.500 Y33.833 F1800.000
G1 X199.500 Y166.167
G1 X0.500 Y166.167
G1 X0.500 Y33.908
G1 X0.933 Y34.083 F7800.000
G1 X3.044 Y36.377 F7800.000
G1 X196.956 Y36.377 F1800.000
G1 X196.956 Y163.622
G1 X3.044 Y163.622
G1 X3.044 Y36.452
G1 X3.938 Y37.271 F7800.000
G1 X196.062 Y37.271 F1800.000
G1 X196.062 Y162.729
G1 X3.938 Y162.729
G1 X3.938 Y37.346
G1 X4.831 Y38.165 F7800.000
G1 X195.169 Y38.165 F1800.000
G1 X195.169 Y161.835
G1 X4.831 Y161.835
G1 X4.831 Y38.240
G1 X5.725 Y39.058 F7800.000
G1 X194.275 Y39.058 F1800.000
G1 X194.275 Y160.942
G1 X5.725 Y160.942
G1 X5.725 Y39.133
G1 X6.619 Y39.952 F7800.000
G1 X193.381 Y39.952 F1800.000
G1 X193.381 Y160.048
G1 X6.619 Y160.048
G1 X6.619 Y40.027
G1 X7.512 Y40.846 F7800.000
G1 X192.488 Y40.846 F1800.000
G1 X192.488 Y159.154
G1 X7.512 Y159.154
G1 X7.512 Y40.921
G1 X8.406 Y41.739 F7800.000
G1 X191.594 Y41.739 F1800.000
G1 X191.594 Y158.261
G1 X8.406 Y158.261
G1 X8.406 Y41.814
G1 X9.299 Y42.633 F7800.000
G1 X190.701 Y42.633 F1800.000
G1 X190.701 Y157.367
G1 X9.299 Y157.367
G1 X9.299 Y42.708
G1 X10.193 Y43.526 F7800.000
G1 X189.807 Y43.526 F1800.000
G1 X189.807 Y156.474
G1 X10.193 Y156.474
G1 X10.193 Y43.601
G1 X11.087 Y44.420 F7800.000
G1 X188.913 Y44.420 F1800.000
G1 X188.913 Y155.580
G1 X11.087 Y155.580
G1 X11.087 Y44.495
G1 X11.980 Y45.314 F7800.000
G1 X188.020 Y45.314 F1800.000
G1 X188.020 Y154.686
G1 X11.980 Y154.686
G1 X11.980 Y45.389
G1 X12.874 Y46.207 F7800.000
G1 X187.126 Y46.207 F1800.000
G1 X187.126 Y153.793
G1 X12.874 Y153.793
G1 X12.874 Y46.282
G1 X13.767 Y47.101 F7800.000
G1 X186.233 Y47.101 F1800.000
G1 X186.233 Y152.899
G1 X13.767 Y152.899
G1 X13.767 Y47.176
G1 X14.661 Y47.994 F7800.000
G1 X185.339 Y47.994 F1800.000
G1 X185.339 Y152.006
G1 X14.661 Y152.006
G1 X14.661 Y48.069
G1 X15.555 Y48.888 F7800.000
G1 X184.445 Y48.888 F1800.000
G1 X184.445 Y151.112
G1 X15.555 Y151.112
G1 X15.555 Y48.963
G1 X16.448 Y49.782 F7800.000
G1 X183.552 Y49.782 F1800.000
G1 X183.552 Y150.218
G1 X16.448 Y150.218
G1 X16.448 Y49.857
G1 X17.342 Y50.675 F7800.000
G1 X182.658 Y50.675 F1800.000
G1 X182.658 Y149.325
G1 X17.342 Y149.325
G1 X17.342 Y50.750
G1 X18.235 Y51.569 F7800.000
G1 X181.765 Y51.569 F1800.000
G1 X181.765 Y148.431
G1 X18.235 Y148.431
G1 X18.235 Y51.644
G1 X19.129 Y52.462 F7800.000
G1 X180.871 Y52.462 F1800.000
G1 X180.871 Y147.538
G1 X19.129 Y147.538
G1 X19.129 Y52.537
G1 X20.023 Y53.356 F7800.000
G1 X179.977 Y53.356 F1800.000
G1 X179.977 Y146.644
G1 X20.023 Y146.644
G1 X20.023 Y53.431
G1 X20.916 Y54.250 F7800.000
G1 X179.084 Y54.250 F1800.000
G1 X179.084 Y145.750
G1 X20.916 Y145.750
G1 X20.916 Y54.325
G1 X21.810 Y55.143 F7800.000
G1 X178.190 Y55.143 F1800.000
G1 X178.190 Y144.857
G1 X21.810 Y144.857
G1 X21.810 Y55.218
G1 X22.703 Y56.037 F7800.000
G1 X177.297 Y56.037 F1800.000
G1 X177.297 Y143.963
G1 X22.703 Y143.963
G1 X22.703 Y56.112
G1 X23.597 Y56.930 F7800.000
G1 X176.403 Y56.930 F1800.000
G1 X176.403 Y143.070
G1 X23.597 Y143.070
G1 X23.597 Y57.005
G1 X24.491 Y57.824 F7800.000
G1 X175.509 Y57.824 F1800.000
G1 X175.509 Y142.176
G1 X24.491 Y142.176
G1 X24.491 Y57.899
G1 X25.384 Y58.718 F7800.000
G1 X174.616 Y58.718 F1800.000
G1 X174.616 Y141.282
G1 X25.384 Y141.282
G1 X25.384 Y58.793
G1 X26.278 Y59.611 F7800.000
G1 X173.722 Y59.611 F1800.000
G1 X173.722 Y140.389
G1 X26.278 Y140.389
G1 X26.278 Y59.686
G1 X27.171 Y60.505 F7800.000
G1 X172.829 Y60.505 F1800.000
G1 X172.829 Y139.495
G1 X27.171 Y139.495
G1 X27.171 Y60.580
G1 X28.065 Y61.398 F7800.000
G1 X171.935 Y61.398 F1800.000
G1 X171.935 Y138.602
G1 X28.065 Y138.602
G1 X28.065 Y61.473
G1 X28.959 Y62.292 F7800.000
G1 X171.041 Y62.292 F1800.000
G1 X171.041 Y137.708
G1 X28.959 Y137.708
G1 X28.959 Y62.367
G1 X29.852 Y63.186 F7800.000
G1 X170.148 Y63.186 F1800.000
G1 X170.148 Y136.814
G1 X29.852 Y136.814
G1 X29.852 Y63.261
G1 X30.746 Y64.079 F7800.000
G1 X169.254 Y64.079 F1800.000
G1 X169.254 Y135.921
G1 X30.746 Y135.921
G1 X30.746 Y64.154
G1 X31.639 Y64.973 F7800.000
G1 X168.361 Y64.973 F1800.000
G1 X168.361 Y135.027
G1 X31.639 Y135.027
G1 X31.639 Y65.048
G1 X32.533 Y65.866 F7800.000
G1 X167.467 Y65.866 F1800.000
G1 X167.467 Y134.134
G1 X32.533 Y134.134
G1 X32.533 Y65.941
G1 X33.427 Y66.760 F7800.000
G1 X166.573 Y66.760 F1800.000
G1 X166.573 Y133.240
G1 X33.427 Y133.240
G1 X33.427 Y66.835
G1 X34.320 Y67.654 F7800.000
G1 X165.680 Y67.654 F1800.000
G1 X165.680 Y132.346
G1 X34.320 Y132.346
G1 X34.320 Y67.729
G1 X35.214 Y68.547 F7800.000
G1 X164.786 Y68.547 F1800.000
G1 X164.786 Y131.453
G1 X35.214 Y131.453
G1 X35.214 Y68.622
G1 X36.107 Y69.441 F7800.000
G1 X163.893 Y69.441 F1800.000
G1 X163.893 Y130.559
G1 X36.107 Y130.559
G1 X36.107 Y69.516
G1 X37.001 Y70.334 F7800.000
G1 X162.999 Y70.334 F1800.000
G1 X162.999 Y129.666
G1 X37.001 Y129.666
G1 X37.001 Y70.409
G1 X37.895 Y71.228 F7800.000
G1 X162.105 Y71.228 F1800.000
G1 X162.105 Y128.772
G1 X37.895 Y128.772
G1 X37.895 Y71.303
G1 X38.788 Y72.122 F7800.000
G1 X161.212 Y72.122 F1800.000
G1 X161.212 Y127.878
G1 X38.788 Y127.878
G1 X38.788 Y72.197
G1 X39.682 Y73.015 F7800.000
G1 X160.318 Y73.015 F1800.000
G1 X160.318 Y126.985
G1 X39.682 Y126.985
G1 X39.682 Y73.090
G1 X40.575 Y73.909 F7800.000
G1 X159.425 Y73.909 F1800.000
G1 X159.425 Y126.091
G1 X40.575 Y126.091
G1 X40.575 Y73.984
G1 X41.469 Y74.802 F7800.000
G1 X158.531 Y74.802 F1800.000
G1 X158.531 Y125.198
G1 X41.469 Y125.198
G1 X41.469 Y74.877
G1 X42.363 Y75.696 F7800.000
G1 X157.637 Y75.696 F1800.000
G1 X157.637 Y124.304
G1 X42.363 Y124.304
G1 X42.363 Y75.771
G1 X43.256 Y76.590 F7800.000
G1 X156.744 Y76.590 F1800.000
G1 X156.744 Y123.410
G1 X43.256 Y123.410
G1 X43.256 Y76.665
G1 X44.150 Y77.483 F7800.000
G1 X155.850 Y77.483 F1800.000
G1 X155.850 Y122.517
G1 X44.150 Y122.517
G1 X44.150 Y77.558
G1 X45.043 Y78.377 F7800.000
G1 X154.956 Y78.377 F1800.000
G1 X154.956 Y121.623
G1 X45.043 Y121.623
G1 X45.043 Y78.452
G1 X45.937 Y79.270 F7800.000
G1 X154.063 Y79.270 F1800.000
G1 X154.063 Y120.730
G1 X45.937 Y120.730
G1 X45.937 Y79.345
G1 X46.831 Y80.164 F7800.000
G1 X153.169 Y80.164 F1800.000
G1 X153.169 Y119.836
G1 X46.831 Y119.836
G1 X46.831 Y80.239
G1 X47.724 Y81.058 F7800.000
G1 X152.276 Y81.058 F1800.000
G1 X152.276 Y118.942
G1 X47.724 Y118.942
G1 X47.724 Y81.133
G1 X48.618 Y81.951 F7800.000
G1 X151.382 Y81.951 F1800.000
G1 X151.382 Y118.049
G1 X48.618 Y118.049
G1 X48.618 Y82.026
G1 X49.511 Y82.845 F7800.000
G1 X150.488 Y82.845 F1800.000
G1 X150.488 Y117.155
G1 X49.511 Y117.155
G1 X49.511 Y82.920
G1 X50.405 Y83.738 F7800.000
G1 X149.595 Y83.738 F1800.000
G1 X149.595 Y116.262
G1 X50.405 Y116.262
G1 X50.405 Y83.813
G1 X51.299 Y84.632 F7800.000
G1 X148.701 Y84.632 F1800.000
G1 X148.701 Y115.368
G1 X51.299 Y115.368
G1 X51.299 Y84.707
G1 X52.192 Y85.526 F7800.000
G1 X147.808 Y85.526 F1800.000
G1 X147.808 Y114.474
G1 X52.192 Y114.474
G1 X52.192 Y85.601
G1 X53.086 Y86.419 F7800.000
G1 X146.914 Y86.419 F1800.000
G1 X146.914 Y113.581
G1 X53.086 Y113.581
G1 X53.086 Y86.494
G1 X53.979 Y87.313 F7800.000
G1 X146.020 Y87.313 F1800.000
G1 X146.020 Y112.687
G1 X53.979 Y112.687
G1 X53.979 Y87.388
G1 X54.873 Y88.206 F7800.000
G1 X145.127 Y88.206 F1800.000
G1 X145.127 Y111.794
G1 X54.873 Y111.794
G1 X54.873 Y88.281
G1 X55.767 Y89.100 F7800.000
G1 X144.233 Y89.100 F1800.000
G1 X144.233 Y110.900
G1 X55.767 Y110.900
G1 X55.767 Y89.175
G1 X56.660 Y89.994 F7800.000
G1 X143.340 Y89.994 F1800.000
G1 X143.340 Y110.006
G1 X56.660 Y110.006
G1 X56.660 Y90.069
G1 X57.554 Y90.887 F7800.000
G1 X142.446 Y90.887 F1800.000
G1 X142.446 Y109.113
G1 X57.554 Y109.113
G1 X57.554 Y90.962
G1 X58.447 Y91.781 F7800.000
G1 X141.552 Y91.781 F1800.000
G1 X141.552 Y108.219
G1 X58.447 Y108.219
G1 X58.447 Y91.856
G1 X59.341 Y92.674 F7800.000
G1 X140.659 Y92.674 F1800.000
G1 X140.659 Y107.326
G1 X59.341 Y107.326
G1 X59.341 Y92.749
G1 X60.235 Y93.568 F7800.000
G1 X139.765 Y93.568 F1800.000
G1 X139.765 Y106.432
G1 X60.235 Y106.432
G1 X60.235 Y93.643
G1 X61.128 Y94.462 F7800.000
G1 X138.872 Y94.462 F1800.000
G1 X138.872 Y105.538
G1 X61.128 Y105.538
G1 X61.128 Y94.537
G1 X62.022 Y95.355 F7800.000
G1 X137.978 Y95.355 F1800.000
G1 X137.978 Y104.645
G1 X62.022 Y104.645
G1 X62.022 Y95.430
G1 X62.915 Y96.249 F7800.000
G1 X137.084 Y96.249 F1800.000
G1 X137.084 Y103.751
G1 X62.915 Y103.751
G1 X62.915 Y96.324
G1 X63.809 Y97.142 F7800.000
G1 X136.191 Y97.142 F1800.000
G1 X136.191 Y102.857
G1 X63.809 Y102.857
G1 X63.809 Y97.217
G1 X64.703 Y98.036 F7800.000
G1 X135.297 Y98.036 F1800.000
G1 X135.297 Y101.964
G1 X64.703 Y101.964
G1 X64.703 Y98.111
G1 X65.596 Y98.930 F7800.000
G1 X134.404 Y98.930 F1800.000
G1 X134.404 Y101.070
G1 X65.596 Y101.070
G1 X65.596 Y99.005
G1 Z0.800 F7800.000
G1 X1.450 Y34.783 F7800.000
G1 X198.550 Y34.783 F3600.000
G1 X198.550 Y165.217
G1 X1.450 Y165.217
G1 X1.450 Y34.858
G1 X0.795 Y34.128 F7800.000
G1 X199.205 Y34.128 F3600.000
G1 X199.205 Y165.872
G1 X0.795 Y165.872
G1 X0.795 Y34.203
G1 X0.250 Y33.583 F7800.000
G1 X199.750 Y33.583 F1800.000
G1 X199.750 Y166.417
G1 X0.250 Y166.417
G1 X0.250 Y33.658
G1 X0.683 Y33.833 F7800.000
G1 X3.091 Y35.180 F7800.000
G1 X1.847 Y36.425 F1200.000
G1 X1.847 Y37.351
G1 X4.018 Y35.180
G1 X4.945 Y35.180
G1 X1.847 Y38.278
G1 X1.847 Y39.205
G1 X5.872 Y35.180
G1 X6.799 Y35.180
G1 X1.847 Y40.132
G1 X1.847 Y41.059
G1 X7.725 Y35.180
G1 X8.652 Y35.180
G1 X1.847 Y41.985
G1 X1.847 Y42.912
G1 X9.579 Y35.180
G1 X10.506 Y35.180
G1 X1.847 Y43.839
G1 X1.847 Y44.766
G1 X11.433 Y35.180
G1 X12.359 Y35.180
G1 X1.847 Y45.693
G1 X1.847 Y46.620
G1 X13.286 Y35.180
G1 X14.213 Y35.180
G1 X1.847 Y47.546
G1 X1.847 Y48.473
G1 X15.140 Y35.180
G1 X16.067 Y35.180
G1 X1.847 Y49.400
G1 X1.847 Y50.327
G1 X16.993 Y35.180
G1 X17.920 Y35.180
G1 X1.847 Y51.254
G1 X1.847 Y52.180
G1 X18.847 Y35.180
G1 X19.774 Y35.180
G1 X1.847 Y53.107
G1 X1.847 Y54.034
G1 X20.701 Y35.180
G1 X21.627 Y35.180
G1 X1.847 Y54.961
G1 X1.847 Y55.888
G1 X22.554 Y35.180
G1 X23.481 Y35.180
G1 X1.847 Y56.814
G1 X1.847 Y57.741
G1 X24.408 Y35.180
G1 X25.335 Y35.180
G1 X1.847 Y58.668
G1 X1.847 Y59.595
G1 X26.262 Y35.180
G1 X27.188 Y35.180
G1 X1.847 Y60.522
G1 X1.847 Y61.448
G1 X28.115 Y35.180
G1 X29.042 Y35.180
G1 X1.847 Y62.375
G1 X1.847 Y63.302
G1 X29.969 Y35.180
G1 X30.896 Y35.180
G1 X1.847 Y64.229
G1 X1.847 Y65.156
G1 X31.822 Y35.180
G1 X32.749 Y35.180
G1 X1.847 Y66.083
G1 X1.847 Y67.009
G1 X33.676 Y35.180
G1 X34.603 Y35.180
G1 X1.847 Y67.936
G1 X1.847 Y68.863
G1 X35.530 Y35.180
G1 X36.456 Y35.180
G1 X1.847 Y69.790
G1 X1.847 Y70.717
G1 X37.383 Y35.180
G1 X38.310 Y35.180
G1 X1.847 Y71.643
G1 X1.847 Y72.570
G1 X39.237 Y35.180
G1 X40.164 Y35.180
G1 X1.847 Y73.497
G1 X1.847 Y74.424
G1 X41.090 Y35.180
G1 X42.017 Y35.180
G1 X1.847 Y75.351
G1 X1.847 Y76.277
G1 X42.944 Y35.180
G1 X43.871 Y35.180
G1 X1.847 Y77.204
G1 X1.847 Y78.131
G1 X44.798 Y35.180
G1 X45.725 Y35.180
G1 X1.847 Y79.058
G1 X1.847 Y79.985
G1 X46.651 Y35.180
G1 X47.578 Y35.180
G1 X1.847 Y80.911
G1 X1.847 Y81.838
G1 X48.505 Y35.180
G1 X49.432 Y35.180
G1 X1.847 Y82.765
G1 X1.847 Y83.692
G1 X50.359 Y35.180
G1 X51.285 Y35.180
G1 X1.847 Y84.619
G1 X1.847 Y85.546
G1 X52.212 Y35.180
G1 X53.139 Y35.180
G1 X1.847 Y86.472
G1 X1.847 Y87.399
G1 X54.066 Y35.180
G1 X54.993 Y35.180
G1 X1.847 Y88.326
G1 X1.847 Y89.253
G1 X55.919 Y35.180
G1 X56.846 Y35.180
G1 X1.847 Y90.180
G1 X1.847 Y91.106
G1 X57.773 Y35.180
G1 X58.700 Y35.180
G1 X1.847 Y92.033
G1 X1.847 Y92.960
G1 X59.627 Y35.180
G1 X60.553 Y35.180
G1 X1.847 Y93.887
G1 X1.847 Y94.814
G1 X61.480 Y35.180
G1 X62.407 Y35.180
G1 X1.847 Y95.740
G1 X1.847 Y96.667
G1 X63.334 Y35.180
G1 X64.261 Y35.180
G1 X1.847 Y97.594
G1 X1.847 Y98.521
G1 X65.188 Y35.180
G1 X66.114 Y35.180
G1 X1.847 Y99.448
G1 X1.847 Y100.374
G1 X67.041 Y35.180
G1 X67.968 Y35.180
G1 X1.847 Y101.301
G1 X1.847 Y102.228
G1 X68.895 Y35.180
G1 X69.822 Y35.180
G1 X1.847 Y103.155
G1 X1.847 Y104.082
G1 X70.748 Y35.180
G1 X71.675 Y35.180
G1 X1.847 Y105.009
G1 X1.847 Y105.935
G1 X72.602 Y35.180
G1 X73.529 Y35.180
G1 X1.847 Y106.862
G1 X1.847 Y107.789
G1 X74.456 Y35.180
G1 X75.382 Y35.180
G1 X1.847 Y108.716
G1 X1.847 Y109.643
G1 X76.309 Y35.180
G1 X77.236 Y35.180
G1 X1.847 Y110.569
G1 X1.847 Y111.496
G1 X78.163 Y35.180
G1 X79.090 Y35.180
G1 X1.847 Y112.423
G1 X1.847 Y113.350
G1 X80.016 Y35.180
G1 X80.943 Y35.180
G1 X1.847 Y114.277
G1 X1.847 Y115.203
G1 X81.870 Y35.180
G1 X82.797 Y35.180
G1 X1.847 Y116.130
G1 X1.847 Y117.057
G1 X83.724 Y35.180
G1 X84.651 Y35.180
G1 X1.847 Y117.984
G1 X1.847 Y118.911
G1 X85.577 Y35.180
G1 X86.504 Y35.180
G1 X1.847 Y119.837
G1 X1.847 Y120.764
G1 X87.431 Y35.180
G1 X88.358 Y35.180
G1 X1.847 Y121.691
G1 X1.847 Y122.618
G1 X89.285 Y35.180
G1 X90.211 Y35.180
G1 X1.847 Y123.545
G1 X1.847 Y124.472
G1 X91.138 Y35.180
G1 X92.065 Y35.180
G1 X1.847 Y125.398
G1 X1.847 Y126.325
G1 X92.992 Y35.180
G1 X93.919 Y35.180
G1 X1.847 Y127.252
G1 X1.847 Y128.179
G1 X94.845 Y35.180
G1 X95.772 Y35.180
G1 X1.847 Y129.106
G1 X1.847 Y130.032
G1 X96.699 Y35.180
G1 X97.626 Y35.180
G1 X1.847 Y130.959
G1 X1.847 Y131.886
G1 X98.553 Y35.180
G1 X99.479 Y35.180
G1 X1.847 Y132.813
G1 X1.847 Y133.740
G1 X100.406 Y35.180
G1 X101.333 Y35.180
G1 X1.847 Y134.666
G1 X1.847 Y135.593
G1 X102.260 Y35.180
G1 X103.187 Y35.180
G1 X1.847 Y136.520
G1 X1.847 Y137.447
G1 X104.114 Y35.180
G1 X105.040 Y35.180
G1 X1.847 Y138.374
G1 X1.847 Y139.300
G1 X105.967 Y35.180
G1 X106.894 Y35.180
G1 X1.847 Y140.227
G1 X1.847 Y141.154
G1 X107.821 Y35.180
G1 X108.748 Y35.180
G1 X1.847 Y142.081
G1 X1.847 Y143.008
G1 X109.674 Y35.180
G1 X110.601 Y35.180
G1 X1.847 Y143.935
G1 X1.847 Y144.861
G1 X111.528 Y35.180
G1 X112.455 Y35.180
G1 X1.847 Y145.788
G1 X1.847 Y146.715
G1 X113.382 Y35.180
G1 X114.308 Y35.180
G1 X1.847 Y147.642
G1 X1.847 Y148.569
G1 X115.235 Y35.180
G1 X116.162 Y35.180
G1 X1.847 Y149.495
G1 X1.847 Y150.422
G1 X117.089 Y35.180
G1 X118.016 Y35.180
G1 X1.847 Y151.349
G1 X1.847 Y152.276
G1 X118.942 Y35.180
G1 X119.869 Y35.180
G1 X1.847 Y153.203
G1 X1.847 Y154.129
G1 X120.796 Y35.180
G1 X121.723 Y35.180
G1 X1.847 Y155.056
G1 X1.847 Y155.983
G1 X122.650 Y35.180
G1 X123.577 Y35.180
G1 X1.847 Y156.910
G1 X1.847 Y157.837
G1 X124.503 Y35.180
G1 X125.430 Y35.180
G1 X1.847 Y158.763
G1 X1.847 Y159.690
G1 X126.357 Y35.180
G1 X127.284 Y35.180
G1 X1.847 Y160.617
G1 X1.847 Y161.544
G1 X128.211 Y35.180
G1 X129.137 Y35.180
G1 X1.847 Y162.471
G1 X1.847 Y163.398
G1 X130.064 Y35.180
G1 X130.991 Y35.180
G1 X1.847 Y164.324
G1 X2.278 Y164.820
G1 X131.918 Y35.180
G1 X132.845 Y35.180
G1 X3.205 Y164.820
G1 X4.132 Y164.820
G1 X133.771 Y35.180
G1 X134.698 Y35.180
G1 X5.059 Y164.820
G1 X5.986 Y164.820
G1 X135.625 Y35.180
G1 X136.552 Y35.180
G1 X6.913 Y164.820
G1 X7.839 Y164.820
G1 X137.479 Y35.180
G1 X138.405 Y35.180
G1 X8.766 Y164.820
G1 X9.693 Y164.820
G1 X139.332 Y35.180
G1 X140.259 Y35.180
G1 X10.620 Y164.820
G1 X11.547 Y164.820
G1 X141.186 Y35.180
G1 X142.113 Y35.180
G1 X12.473 Y164.820
G1 X13.400 Y164.820
